lib/assets/icons/svg/outlined-social-addcontact.svg

<svg xmlns="http://www.w3.org/2000/svg" viewBox="0 0 24 24"><path d="M11.822 7.624c1.306-2.277 4.587-2.287 5.906-.018a3.408 3.408 0 0 1-.98 4.499 6.002 6.002 0 0 1 3.962 5.485.5.5 0 0 1-.49.5h-.04a.5.5 0 0 1-.5-.49 4.93 4.93 0 0 0-4.89-4.85h-.07a4.9 4.9 0 0 0-4.85 4.85.5.5 0 0 1-.5.49.5.5 0 0 1-.49-.5 5.892 5.892 0 0 1 3.907-5.498c-1.334-.966-1.889-2.857-.965-4.468zm2.968-.704c-1.855-.008-3.023 1.996-2.102 3.606.921 1.611 3.24 1.62 4.174.018A2.41 2.41 0 0 0 14.79 6.92zm-8 6.64a.5.5 0 0 1-.5-.5v-2.45h-2.5a.5.5 0 0 1 0-1h2.5v-2.5a.5.5 0 0 1 1 0v2.5h2.5a.51.51 0 0 1 .5.5.5.5 0 0 1-.5.5h-2.5v2.5a.5.5 0 0 1-.5.45z"/></svg>

<svg viewBox="0 0 24 24" xmlns="http://www.w3.org/2000/svg">
  <path  d="M 11.822 7.624 C 13.128 5.347 16.409 5.337 17.728 7.606 C 18.031 8.127 18.19 8.718 18.19 9.32 C 18.19 10.47 17.621 11.487 16.748 12.105 C 19.008 12.92 20.642 15.054 20.71 17.59 C 20.71 17.862 20.492 18.085 20.22 18.09 L 20.18 18.09 C 19.908 18.09 19.685 17.872 19.68 17.6 C 19.637 14.924 17.466 12.771 14.79 12.75 L 14.72 12.75 C 12.053 12.777 9.897 14.933 9.87 17.6 C 9.865 17.872 9.642 18.09 9.37 18.09 C 9.098 18.085 8.88 17.862 8.88 17.59 C 8.901 15.054 10.524 12.901 12.787 12.092 C 11.453 11.126 10.898 9.235 11.822 7.624 Z M 14.79 6.92 C 12.935 6.912 11.767 8.916 12.688 10.526 C 13.609 12.137 15.928 12.146 16.862 10.544 C 17.079 10.172 17.192 9.75 17.19 9.32 C 17.185 7.997 16.113 6.925 14.79 6.92 Z M 6.79 13.56 C 6.514 13.56 6.29 13.336 6.29 13.06 L 6.29 10.61 L 3.79 10.61 C 3.514 10.61 3.29 10.386 3.29 10.11 C 3.29 9.834 3.514 9.61 3.79 9.61 L 6.29 9.61 L 6.29 7.11 C 6.29 6.834 6.514 6.61 6.79 6.61 C 7.066 6.61 7.29 6.834 7.29 7.11 L 7.29 9.61 L 9.79 9.61 C 10.064 9.615 10.285 9.836 10.29 10.11 C 10.29 10.386 10.066 10.61 9.79 10.61 L 7.29 10.61 L 7.29 13.11 C 7.264 13.366 7.048 13.561 6.79 13.56 Z"/>
</svg>
